X: 10
T: Acemaşîrân Aranağme (Ağıraksak)
C: ?
O: Turkey
F: http://compmusic.upf.edu/node/140
N: acemasiran--aranagme--agiraksak--1--
N: makam= acemasiran
N: form= aranagme
N: usul= agiraksak = 9/4
M: 9/4
L: 1/16
K: C _B   
Q: 1/4=66
%%MIDI tuningsystem comma53
z2fe .f2.g2 a3g f2e2 g3f e2d2 e2f2 gfed c4  | \
w:   | 
z2{e'}d'2 c'2b2 a2c'2 {c'}b2a2 g2a2 c'bag f8 g2a2  | 
w:   | 
b3a {b}g2b2 a3g f2a2 g3f e2g2 f3e d2f2 e2d2  | \
w:   | 
c3B A2f2 {f}e2d2 c2B2 A3G AGFE F4 c2de f4  | 
w:   | 
z2fe .f2.g2 a3g f2e2 g3f e2d2 e2f2 gfed c4  | \
w:   | 
z2{e'}d'2 c'2b2 a2c'2 {c'}b2a2 g2a2 c'bag f8 g2a2  | 
w:   | 
b3a {b}g2b2 a3g f2a2 g3f e2g2 f3e d2f2 e2d2  | \
w:   | 
c3B A2f2 {f}e2d2 c2B2 A3G AGFE F8 z4  | 
w:   | 
|


